docs/svgs/network-wifi-2-bar-rounded-filled.svg

<?xml version="1.0" encoding="UTF-8"?>
<svg xmlns="http://www.w3.org/2000/svg" xmlns:xlink="http://www.w3.org/1999/xlink" width="24px" height="24px" viewBox="0 0 24 24" version="1.1">
<g id="surface1">
<path style=" stroke:none;fill-rule:nonzero;fill:rgb(0%,0%,0%);fill-opacity:1;" d="M 7.476562 13.625 C 8.109375 13.160156 8.808594 12.796875 9.574219 12.535156 C 10.339844 12.277344 11.148438 12.148438 12 12.148438 C 12.851562 12.148438 13.660156 12.277344 14.425781 12.535156 C 15.191406 12.796875 15.890625 13.160156 16.523438 13.625 L 21.101562 9.050781 C 19.800781 8.066406 18.378906 7.3125 16.839844 6.785156 C 15.296875 6.261719 13.683594 6 12 6 C 10.316406 6 8.703125 6.261719 7.160156 6.785156 C 5.621094 7.3125 4.199219 8.066406 2.898438 9.050781 Z M 12 20.574219 C 11.867188 20.574219 11.742188 20.554688 11.625 20.511719 C 11.507812 20.46875 11.398438 20.398438 11.300781 20.300781 L 0.699219 9.699219 C 0.5 9.5 0.40625 9.261719 0.414062 8.988281 C 0.421875 8.710938 0.523438 8.484375 0.726562 8.300781 C 2.292969 6.882812 4.039062 5.8125 5.964844 5.089844 C 7.886719 4.363281 9.898438 4 12 4 C 14.117188 4 16.136719 4.363281 18.0625 5.089844 C 19.988281 5.8125 21.726562 6.882812 23.273438 8.300781 C 23.476562 8.484375 23.578125 8.710938 23.589844 8.988281 C 23.597656 9.261719 23.5 9.5 23.300781 9.699219 L 12.699219 20.300781 C 12.601562 20.398438 12.492188 20.46875 12.375 20.511719 C 12.257812 20.554688 12.132812 20.574219 12 20.574219 Z M 12 20.574219 "/>
</g>
</svg>

<svg xmlns="http://www.w3.org/2000/svg" height="24" width="24"><path d="M7.475 13.625q.95-.7 2.1-1.088 1.15-.387 2.425-.387t2.425.387q1.15.388 2.1 1.088L21.1 9.05q-1.95-1.475-4.262-2.263Q14.525 6 12 6t-4.838.787Q4.85 7.575 2.9 9.05ZM12 20.575q-.2 0-.375-.063-.175-.062-.325-.212L.7 9.7q-.3-.3-.287-.713.012-.412.312-.687 2.35-2.125 5.238-3.212Q8.85 4 12 4q3.175 0 6.062 1.088Q20.95 6.175 23.275 8.3q.3.275.313.687.012.413-.288.713L12.7 20.3q-.15.15-.325.212-.175.063-.375.063Z"/></svg>
